assets/img/floor1.svg

<?xml version="1.0" encoding="utf-8"?>
<!-- Generator: Adobe Illustrator 16.0.0, SVG Export Plug-In . SVG Version: 6.00 Build 0)  -->
<!DOCTYPE svg PUBLIC "-//W3C//DTD SVG 1.1//EN" "http://www.w3.org/Graphics/SVG/1.1/DTD/svg11.dtd">
<svg version="1.1" id="Layer_1" xmlns="http://www.w3.org/2000/svg" xmlns:xlink="http://www.w3.org/1999/xlink" x="0px" y="0px"
	 width="1920px" height="1080px" viewBox="0 0 1920 1080" enable-background="new 0 0 1920 1080" xml:space="preserve">
<g>
	<defs>
		<rect id="SVGID_1_" x="0" width="1920" height="1080"/>
	</defs>
	<clipPath id="SVGID_2_">
		<use xlink:href="#SVGID_1_"  overflow="visible"/>
	</clipPath>
	<path clip-path="url(#SVGID_2_)" fill="#7575BF" d="M705.966,846.26c3.818-7.159,8.485-29.829,10.341-40.27h-6.363L465.74,823.888
		l-56.478,34.305l20.683,23.863c49.583-0.895,149.146-2.982,150.737-4.177c1.989-1.491,2.387-8.649,4.773-9.545
		c1.909-0.716,3.182-3.082,3.579-4.176c-0.266-2.287-0.318-6.683,1.591-5.966c1.909,0.716,5.569,0.695,7.159,0.596
		c5.966-2.982,6.762-9.247,8.353-12.528c1.272-2.625,2.651-2.485,3.183-2.088c2.518,2.884,7.954,8.889,9.545,9.844
		c1.591,0.954,3.579,0.397,4.375,0c3.579,3.579,3.579,9.545,7.159,8.353c3.58-1.193,11.932-15.213,13.522-21.179
		c1.272-4.773,3.712-0.796,4.772,1.79c4.772,8.948,2.387,19.687,3.978,22.969c1.272,2.625,4.242,2.684,5.568,2.386
		c4.454-3.102,11.667-14.418,14.716-19.688c0.795-1.689,2.784-5.13,4.375-5.368c1.988-0.298,1.591,0,4.375,1.79
		c2.227,1.432,4.905,1.392,5.966,1.192c3.183,0,3.183-4.474,3.183-7.457c0-2.387,1.59-2.387,2.386-2.088
		c2.227,1.193,4.109,4.673,4.772,6.265C700.557,847.036,704.375,846.857,705.966,846.26z"/>
	<path clip-path="url(#SVGID_2_)" fill="#9797FF" d="M152.33,756.175C107.148,757.13,31.951,761.345,0,763.334v133.338v40.277
		L805,944.108l-12.329-61.754c-32.614,3.579-98.636,0.895-115.739,0c-13.681-0.717-22.007-1.491-24.261-2.387
		c-22.273-4.176-66.818-2.685-74.773-3.281c-6.362-0.478-10.737-1.392-11.533-2.088c-4.772-3.878-36.988-2.088-38.183-2.088
		c-1.192,0-6.761,0-4.771,1.193c1.591,0.954-1.725,1.392-3.58,1.491c-17.5,1.192-37.784-0.497-45.738-1.491
		c-37.387-4.176-41.364-5.668-46.137-7.458c-4.772-1.789-7.954-6.264,1.989-11.633c9.942-5.37,34.602-5.668,71.987-6.563
		c37.388-0.895,48.523-2.088,59.66-4.474c11.136-2.386,11.136-2.983,11.931-3.878c0.797-0.896,0-1.491-7.158-2.088
		c-7.159-0.598-7.954-2.686-1.988-4.773s22.271-1.491,55.284-2.386c33.011-0.896,44.545-4.476,47.329-5.668
		c2.227-0.954-0.398-0.994-1.988-0.896c-15.273,0.955-22.538,0.398-24.262,0c-3.818-1.192-0.266-1.889,1.988-2.088
		c23.863-1.431,42.291-4.971,48.523-6.562c23.863-6.861,24.659-9.845,24.261-11.335c-0.317-1.194-4.109-2.486-5.966-2.983
		c-83.523-24.759-66.818-19.688-130.454-32.217c-63.637-12.529-169.83-14.317-194.887-13.721c-20.045,0.477-31.42,0.197-34.603,0
		c-5.567-1.193-6.363-2.686-15.511-2.089s-25.853,5.071-68.409,10.44c-34.046,4.295-59.262,5.369-67.614,5.369
		c-22.591-1.67-29.034-5.271-29.432-6.86C165.773,757.07,156.572,756.076,152.33,756.175z"/>
	<path clip-path="url(#SVGID_2_)" fill="#9797FF" d="M1907.711,925.835C1503.73,879.081,467.577,865.713,0,864.874V1080h7196V617
		c-137,128.135-662.459,369.292-1668.311,308.835c-1257.309-75.572-2112.51,19.648-2274.76,36.274
		C3090.68,978.734,2412.689,984.276,1907.711,925.835z"/>
</g>
</svg>

<svg width="1920" height="1080" viewBox="0 0 1920 1080" fill="none" xmlns="http://www.w3.org/2000/svg">
<g clip-path="url(#clip0_186_173)">
<path d="M705.966 846.26C709.784 839.101 714.451 816.431 716.307 805.99H709.943L465.739 823.888L409.262 858.192L429.944 882.056C479.527 881.161 579.091 879.073 580.682 877.879C582.671 876.388 583.068 869.229 585.455 868.334C587.364 867.618 588.637 865.252 589.034 864.158C588.769 861.871 588.716 857.476 590.625 858.192C592.534 858.908 596.194 858.888 597.784 858.788C603.75 855.806 604.546 849.541 606.137 846.26C607.409 843.635 608.788 843.774 609.319 844.172C611.837 847.056 617.273 853.061 618.864 854.016C620.455 854.97 622.443 854.413 623.239 854.016C626.818 857.595 626.818 863.561 630.398 862.368C633.978 861.175 642.33 847.155 643.921 841.189C645.193 836.416 647.633 840.394 648.693 842.979C653.466 851.928 651.08 862.666 652.671 865.948C653.943 868.573 656.913 868.632 658.239 868.334C662.693 865.232 669.906 853.916 672.955 848.646C673.75 846.956 675.739 843.516 677.33 843.277C679.318 842.979 678.921 843.277 681.705 845.067C683.932 846.499 686.61 846.459 687.671 846.26C690.853 846.26 690.853 841.786 690.853 838.803C690.853 836.416 692.443 836.416 693.239 836.715C695.466 837.908 697.349 841.388 698.012 842.979C700.557 847.036 704.375 846.857 705.966 846.26Z" fill="#5F4172"/>
<path d="M152.329 756.175C107.148 757.13 31.9507 761.345 0 763.334V896.672V936.949L804.999 944.108L792.67 882.354C760.056 885.934 694.034 883.249 676.931 882.354C663.25 881.638 654.924 880.863 652.67 879.968C630.397 875.792 585.852 877.283 577.897 876.687C571.534 876.209 567.159 875.295 566.363 874.599C561.591 870.721 529.375 872.511 528.181 872.511C526.988 872.511 521.42 872.511 523.409 873.704C525 874.658 521.685 875.096 519.829 875.195C502.329 876.388 482.045 874.698 474.091 873.704C436.704 869.528 432.727 868.036 427.954 866.246C423.182 864.457 420 859.982 429.943 854.613C439.886 849.243 464.545 848.945 501.931 848.05C539.318 847.155 550.454 845.962 561.591 843.576C572.727 841.19 572.727 840.593 573.522 839.698C574.318 838.803 573.522 838.207 566.363 837.61C559.204 837.013 558.409 834.925 564.375 832.837C570.341 830.749 586.647 831.346 619.659 830.451C652.67 829.556 664.204 825.976 666.988 824.783C669.215 823.829 666.59 823.789 665 823.888C649.727 824.843 642.462 824.286 640.738 823.888C636.92 822.695 640.473 821.999 642.727 821.8C666.59 820.369 685.018 816.829 691.25 815.238C715.113 808.377 715.909 805.394 715.511 803.903C715.193 802.709 711.401 801.417 709.545 800.92C626.022 776.161 642.727 781.232 579.091 768.703C515.454 756.174 409.261 754.386 384.204 754.982C364.159 755.459 352.784 755.18 349.602 754.982C344.034 753.789 343.238 752.297 334.091 752.894C324.943 753.49 308.238 757.965 265.682 763.334C231.636 767.629 206.42 768.703 198.068 768.703C175.477 767.033 169.034 763.433 168.636 761.843C165.773 757.07 156.572 756.076 152.329 756.175Z" fill="#C7A1C7"/>
<path d="M1907.71 925.835C1503.73 879.081 467.576 865.713 0 864.874V1080H7196V617C7059 745.135 6533.54 986.292 5527.69 925.835C4270.38 850.263 3415.18 945.483 3252.93 962.109C3090.68 978.734 2412.69 984.276 1907.71 925.835Z" fill="#C7A1C7"/>
</g>
<defs>
<clipPath id="clip0_186_173">
<rect width="1920" height="1080" fill="white"/>
</clipPath>
</defs>
</svg>
